brandFactory_export/3.Masa/Data settings_3Masa.svg

<?xml version="1.0" encoding="UTF-8"?>
<svg width="24px" height="24px" viewBox="0 0 24 24" version="1.1" xmlns="http://www.w3.org/2000/svg" xmlns:xlink="http://www.w3.org/1999/xlink">
    <title>3.Masa/Data settings_3Masa</title>
    <g id="Symbols" stroke="none" stroke-width="1" fill="none" fill-rule="evenodd">
        <g id="3.Masa/Data-settings_3Masa" fill="#5CB615" fill-rule="nonzero">
            <path d="M9.42521008,4.01344538 C7.95294118,3.59327731 7.05882353,3.02521008 6.81680672,2.3697479 C6.81680672,2.35966387 6.81680672,2.35966387 6.80672269,2.34621849 C7.04537815,1.6907563 7.9394958,1.1092437 9.40168067,0.68907563 C10.9546218,0.248739496 13.005042,0 15.1798319,0 C17.3546218,0 19.4084034,0.245378151 20.9478992,0.68907563 C22.487395,1.13277311 23.3613445,1.71092437 23.5529412,2.4 C23.5529412,2.4 23.5394958,2.41008403 23.5394958,2.42016807 C23.2806723,3.05546218 22.3966387,3.60336134 20.9579832,4.01344538 C19.405042,4.45378151 17.3680672,4.70252101 15.189916,4.70252101 C13.0117647,4.70252101 10.9781513,4.45378151 9.42521008,4.01344538 L9.42521008,4.01344538 Z M6.52773109,15.0957983 C6.52773109,16.6621849 7.33109244,17.4252101 8.98151261,17.4252101 C10.6319328,17.4252101 11.4386555,16.6655462 11.4386555,15.0957983 C11.4386555,13.5294118 10.6352941,12.7663866 8.98151261,12.7663866 C7.33109244,12.7663866 6.52773109,13.5294118 6.52773109,15.0957983 L6.52773109,15.0957983 Z M12.9647059,15.0957983 C12.9647059,17.4621849 11.4756303,18.8773109 8.98151261,18.8773109 C6.48739496,18.8773109 4.99831933,17.4655462 4.99831933,15.0957983 C4.99831933,12.7260504 6.48739496,11.3142857 8.98151261,11.3142857 C11.4789916,11.3142857 12.9647059,12.7260504 12.9647059,15.0957983 Z M6.11092437,19.4823529 C6.55798319,19.6907563 7.0789916,19.8453782 7.65714286,19.9327731 C8.02689076,19.989916 8.29579832,20.292437 8.29579832,20.6487395 L8.29579832,22.1176471 L9.61008403,22.1714286 C9.64033613,22.1714286 9.66386555,22.1478992 9.66386555,22.1176471 L9.66386555,20.6487395 C9.66386555,20.292437 9.93613445,19.989916 10.3058824,19.9327731 C10.5680672,19.892437 10.810084,19.8352941 11.0453782,19.7714286 C11.3277311,19.6941176 11.5966387,19.6 11.8588235,19.4789916 C12.1512605,19.3411765 12.5042017,19.3983193 12.7327731,19.6168067 L13.5697479,20.4134454 L13.8016807,20.6319328 L13.8789916,20.7058824 L14.8907563,19.8319328 L13.7478992,18.6554622 C13.6672269,18.5781513 13.6134454,18.4840336 13.5764706,18.3865546 C13.5092437,18.205042 13.5092437,18.0033613 13.6033613,17.8218487 C13.687395,17.6638655 13.7512605,17.4890756 13.8151261,17.3142857 C13.9260504,17.0151261 14.0201681,16.6991597 14.0773109,16.3563025 C14.1378151,16.0033613 14.4571429,15.7445378 14.8336134,15.7445378 L16.3831933,15.7445378 L16.4403361,14.5008403 L14.8369748,14.4470588 C14.4605042,14.4470588 14.1411765,14.1882353 14.0806723,13.8352941 C13.9865546,13.287395 13.8285714,12.7932773 13.6067227,12.3663866 C13.5764706,12.3092437 13.5596639,12.2487395 13.5495798,12.1882353 C13.5361345,12.1310924 13.5361345,12.0773109 13.5361345,12.0235294 C13.5428571,11.8420168 13.610084,11.6638655 13.7512605,11.5294118 L14.3226891,10.9882353 L14.897479,10.4436975 L13.9798319,9.48235294 L12.7394958,10.5680672 C12.507563,10.7865546 12.1579832,10.8436975 11.8655462,10.7092437 C11.4016807,10.4941176 10.9176471,10.3529412 10.3563025,10.2655462 L10.3159664,10.2554622 C9.94621849,10.1983193 9.67394958,9.89579832 9.67394958,9.5394958 L9.67394958,8.06722689 L8.35966387,8.01680672 L8.35966387,8.04369748 L8.30252101,9.54285714 C8.30252101,9.89915966 8.03361345,10.2016807 7.66386555,10.2588235 C7.08571429,10.3462185 6.56470588,10.497479 6.11764706,10.7092437 C5.82521008,10.8470588 5.46890756,10.7932773 5.23697479,10.5714286 L4.0907563,9.48571429 L3.0789916,10.3563025 L4.22184874,11.5327731 C4.46386555,11.7647059 4.51764706,12.1176471 4.34621849,12.4033613 C4.14453782,12.7394958 3.97310924,13.3680672 3.89243697,13.8420168 C3.83193277,14.1915966 3.51260504,14.4504202 3.1394958,14.4504202 L1.59327731,14.4504202 L1.53613445,15.697479 L3.1394958,15.7478992 C3.51260504,15.7478992 3.83529412,16.0067227 3.89243697,16.3563025 C3.97310924,16.8302521 4.14453782,17.4554622 4.34621849,17.794958 C4.51428571,18.0773109 4.46386555,18.4336134 4.22184874,18.6621849 L3.0789916,19.7478992 L3.99663866,20.7092437 L5.23697479,19.6201681 C5.38151261,19.4823529 5.57983193,19.4084034 5.77478992,19.4084034 C5.88571429,19.4084034 6.00336134,19.4319328 6.11092437,19.4823529 Z M15.3277311,12.087395 C17.5663866,12.0773109 19.6806723,11.8218487 21.2907563,11.3579832 C22.2184874,11.0991597 23.0117647,10.7327731 23.6134454,10.292437 L23.6134454,15.0689076 C23.3277311,15.5731092 22.4907563,16.2386555 20.9613445,16.6823529 C19.4722689,17.1092437 17.4991597,17.3512605 15.4016807,17.3647059 C15.3411765,17.5731092 15.2773109,17.7848739 15.1966387,17.9798319 L15.6739496,18.4302521 C17.7815126,18.3966387 19.7613445,18.1512605 21.2907563,17.7142857 C22.2184874,17.4554622 23.0117647,17.0789916 23.6134454,16.6386555 L23.6134454,20.887395 C23.6134454,21.7243697 22.7193277,22.4134454 20.9512605,22.9210084 C19.3983193,23.3647059 17.3478992,23.610084 15.1831933,23.610084 C13.5697479,23.610084 12.0201681,23.4722689 10.6857143,23.2168067 C10.4033613,23.4655462 10.0268908,23.6201681 9.61344538,23.6201681 L8.35630252,23.6201681 C7.48235294,23.6201681 6.77310924,22.9445378 6.77310924,22.1176471 L6.77310924,21.2369748 C6.48403361,21.1697479 6.21176471,21.0890756 5.94621849,20.9915966 L5.1697479,21.7277311 C4.56806723,22.2991597 3.51932773,22.302521 2.91428571,21.7277311 L1.99663866,20.8537815 C1.69747899,20.5680672 1.52941176,20.1848739 1.52941176,19.7815126 C1.52941176,19.3747899 1.69747899,18.994958 2,18.7092437 L2.7697479,17.9798319 C2.65882353,17.7109244 2.57815126,17.4319328 2.51764706,17.1865546 L1.59327731,17.1865546 C0.719327731,17.1865546 0.0100840336,16.5109244 0.0100840336,15.6840336 L0.0100840336,14.4907563 C0.0100840336,13.6605042 0.719327731,12.9882353 1.59327731,12.9882353 L2.51764706,12.9882353 C2.57815126,12.7462185 2.66218487,12.4672269 2.7697479,12.194958 L2,11.4655462 C1.70084034,11.1798319 1.53277311,10.7966387 1.53277311,10.3932773 C1.53277311,9.98655462 1.70084034,9.60672269 2.00336134,9.3210084 L2.9210084,8.45378151 C3.52605042,7.88235294 4.57478992,7.88235294 5.17647059,8.45378151 L5.95294118,9.18991597 C6.21848739,9.09579832 6.4907563,9.01176471 6.77983193,8.94117647 L6.77983193,8.09747899 L6.75630252,8.09411765 L6.71596639,4.03361345 C7.28739496,4.4605042 8.07058824,4.82016807 9.08235294,5.08907563 C10.7394958,5.54621849 12.907563,5.78823529 15.1831933,5.76806723 C17.4621849,5.74789916 19.6235294,5.46890756 21.2705882,4.98151261 C22.2554622,4.69243697 23.0218487,4.34285714 23.5831933,3.90588235 L23.6302521,8.63865546 C23.3512605,9.14621849 22.5210084,9.82184874 20.994958,10.2756303 C19.7210084,10.6521008 18.087395,10.8840336 16.3294118,10.9647059 C16.2487395,11.1495798 16.1344538,11.3176471 15.9798319,11.4621849 L15.3277311,12.087395 Z" id="Data-settings_3Masa"></path>
        </g>
    </g>
</svg>

<svg width="24" height="24" viewBox="0 0 24 24" xmlns="http://www.w3.org/2000/svg"><path d="M9.425 4.013c-1.472-.42-2.366-.988-2.608-1.643 0-.01 0-.01-.01-.024C7.045 1.691 7.939 1.11 9.402.69 10.955.25 13.005 0 15.18 0c2.175 0 4.228.245 5.768.69 1.54.443 2.413 1.02 2.605 1.71 0 0-.014.01-.014.02-.258.635-1.142 1.183-2.581 1.593-1.553.44-3.59.69-5.768.69s-4.212-.25-5.765-.69zM6.528 15.096c0 1.566.803 2.33 2.454 2.33 1.65 0 2.457-.76 2.457-2.33 0-1.567-.804-2.33-2.457-2.33-1.65 0-2.454.763-2.454 2.33zm6.437 0c0 2.366-1.49 3.781-3.983 3.781-2.495 0-3.984-1.411-3.984-3.781s1.49-3.782 3.984-3.782c2.497 0 3.983 1.412 3.983 3.782zM6.11 19.482c.447.209.968.363 1.546.45.37.058.639.36.639.717v1.469l1.314.053c.03 0 .054-.023.054-.053v-1.47c0-.356.272-.658.642-.715.262-.04.504-.098.74-.162.282-.077.55-.171.813-.292a.789.789 0 01.874.138l.837.796.232.219.077.074 1.012-.874-1.143-1.177a.72.72 0 01-.172-.268.691.691 0 01.027-.565c.084-.158.148-.333.212-.508.111-.299.205-.615.262-.958a.755.755 0 01.757-.611h1.55l.056-1.244-1.603-.054a.755.755 0 01-.756-.612 5.026 5.026 0 00-.474-1.469.58.58 0 01-.057-.178c-.014-.057-.014-.11-.014-.164a.708.708 0 01.215-.495l.572-.54.574-.545-.917-.962-1.24 1.086a.797.797 0 01-.874.141 5.522 5.522 0 00-1.51-.443l-.04-.01a.738.738 0 01-.642-.717V8.067l-1.314-.05v.027l-.057 1.499a.735.735 0 01-.64.716c-.577.087-1.098.238-1.545.45a.795.795 0 01-.881-.138L4.091 9.486l-1.012.87 1.143 1.177a.697.697 0 01.124.87c-.201.336-.373.965-.454 1.439a.755.755 0 01-.753.608H1.593l-.057 1.247 1.603.05c.374 0 .696.26.753.61.081.473.253 1.098.454 1.438a.696.696 0 01-.124.867l-1.143 1.086.918.961 1.24-1.089a.787.787 0 01.874-.138zm9.217-7.395c2.238-.01 4.353-.265 5.963-.729.927-.259 1.72-.625 2.322-1.066v4.777c-.285.504-1.122 1.17-2.652 1.613-1.489.427-3.462.67-5.56.683-.06.208-.124.42-.204.615l.477.45c2.108-.033 4.087-.279 5.617-.716.927-.259 1.72-.635 2.322-1.075v4.248c0 .837-.894 1.526-2.662 2.034-1.553.444-3.603.69-5.768.69-1.613 0-3.163-.139-4.497-.394a1.62 1.62 0 01-1.073.403H8.356c-.874 0-1.583-.675-1.583-1.502v-.881a6.953 6.953 0 01-.827-.245l-.776.736c-.602.571-1.65.575-2.256 0l-.917-.874a1.48 1.48 0 01-.468-1.072c0-.407.168-.787.471-1.073l.77-.73a5.644 5.644 0 01-.252-.792h-.925C.72 17.187.01 16.51.01 15.684v-1.193c0-.83.71-1.503 1.583-1.503h.925c.06-.242.144-.52.252-.793l-.77-.73a1.48 1.48 0 01-.467-1.072c0-.406.168-.786.47-1.072l.918-.867c.605-.572 1.654-.572 2.255 0l.777.736c.265-.094.538-.178.827-.249v-.844l-.024-.003-.04-4.06c.571.427 1.355.786 2.366 1.055 1.657.457 3.826.7 6.101.68 2.28-.021 4.44-.3 6.088-.787.984-.29 1.75-.64 2.312-1.076l.047 4.733c-.279.507-1.109 1.183-2.635 1.637-1.274.376-2.908.608-4.666.689-.08.185-.195.353-.35.497l-.651.625z" fill="#5CB615" fill-rule="nonzero"/></svg>
